Sites/Hud/app/img/dest/advantages/image(5).svg

<svg width="128" height="128" viewBox="0 0 128 128" fill="none" xmlns="http://www.w3.org/2000/svg">
<circle cx="64" cy="64" r="63" stroke="white" stroke-width="2"/>
<path d="M33.9143 63.602V52.5311H27V81.0405H33.9143V70.4761M33.9143 63.602H37.4806V52.5311H46.2144L57.3499 48.9132H68.8495M33.9143 63.602V70.4761M33.9143 70.4761H37.4806V81.0405H48.0339L57.3499 89H84.2064L89.4467 83.1389V75.9754H95.0508V81.0405H100V52.5311H93.8863V57.8857H89.4467V48.9132H68.8495M68.8495 48.9132V44.3546M68.8495 44.3546H62.4447V39H84.2064V44.3546H79.1844M68.8495 44.3546H79.1844M79.1844 44.3546V47.6107M66.011 54.8466H76.5643L72.0518 63.602H77.5832L61.2802 81.0405L66.9571 67.1476H62.4447L66.011 54.8466Z" stroke="white" stroke-width="3"/>
</svg>

<svg width="128" height="128" fill="none" xmlns="http://www.w3.org/2000/svg"><circle cx="64" cy="64" r="63" stroke="#fff" stroke-width="2"/><path d="M33.914 63.602v-11.07H27V81.04h6.914V70.476m0-6.874h3.567v-11.07h8.733l11.136-3.619h11.5M33.914 63.602v6.874m0 0h3.567V81.04h10.553L57.35 89h26.856l5.24-5.861v-7.164h5.605v5.066H100V52.53h-6.114v5.355h-4.44v-8.973H68.85m0 0v-4.558m0 0h-6.405V39h21.761v5.355h-5.022m-10.334 0h10.334m0 0v3.256m-13.173 7.236h10.553l-4.512 8.755h5.531L61.28 81.04l5.677-13.892h-4.512l3.566-12.301z" stroke="#fff" stroke-width="3"/></svg>
